X: 1
T: the Strathbogie Toast
C: trad.
R: reel
S: Fiddle Hell Online 2022-4-10 handout for Alasdair White's pipe-tunes workshp
Z: 2022 John Chambers <jc:trillian.mit.edu>
M: 4/4
L: 1/8
K: Amix
|:\
eaag aaeg | dega egdg | eaag aaea | gedB AAAc || eaag aaeg |
dega gede | dega egeg | egdB AAAc :| A2eA cAef | gedg BGdB | A2eA cAef |
gedB AAAe || A2eA cAef | gedg BGdB | ABcd efga | gedB AAAe |]
